X: 13121
T: First And Last
R: reel
M: 4/4
K: Dmajor
|:D2FD FAdA|BAdA BAFA|D2FD FAdf|gfeg fece|
D2FD FAdA|BAdA Bcdf|g2ge f2fd|1 fgfe BAFA:|2 fgfe BABc||
d2fd Adfa|gefd edBc|d2fd Adfa|gAfA eAfA|
d2fd Adfa|gefd edef|g2ge f2fd|fgfe BABc||
d2fd Adfa|gefd egfe|d2fd Adfa|aAgA fAeA|
d2fd e2ge|f2af g2bg|agfa gfeg|fedc dBAF||

